packages/sights/assets/overlays/jgB-cu5G.svg

<svg width="500" height="375" viewBox="0 0 500 375" fill="none" xmlns="http://www.w3.org/2000/svg">
<path d="M11.3108 121.968C11.3108 121.968 13.4998 108.758 23.2398 122.518C32.9998 137.089 40.7748 152.894 46.3598 169.518L171.71 263.998C171.71 263.998 153.981 213.998 178.441 206.668C178.441 206.668 226.751 187.868 273.981 301.598C273.981 301.598 280.861 323.598 281.981 336.918L285.901 342.168C285.901 342.168 338.211 352.948 416.61 332.308C416.61 332.308 451.92 308.458 484.02 247.468C484.02 247.468 499.31 202.468 486.31 172.408L480.81 166.068C480.81 166.068 484.25 155.998 478.29 148.168C472.33 140.338 443.51 104.828 336.811 81.2881C336.811 81.2881 287.891 39.0981 261.601 28.0981C261.601 28.0981 207.941 8.09809 78.1608 19.5281C78.1608 19.5281 46.7508 22.5281 37.3408 30.3081C37.3408 30.3081 18.0798 69.0581 18.0798 69.7481C18.0798 70.4381 9.00082 76.8881 9.00082 76.8881C9.00082 76.8881 9.25083 92.8281 10.2908 96.9481L10.5908 117.858C10.5908 117.858 13.3408 135.588 17.0108 140.628" stroke="white" stroke-miterlimit="10"/>
<path d="M85.5205 105.308C85.5205 105.308 112.861 110.208 137.521 109.138C137.521 109.138 154.801 113.138 155.101 113.578C155.401 114.018 155.711 118.928 155.101 122.288C155.101 122.288 139.971 115.558 125.901 115.408C125.901 115.408 92.5805 113.408 89.9805 111.898C86.1105 107.283 83.4315 101.789 82.1805 95.8981L83.7105 93.7581C83.7105 93.7581 105.271 83.9681 112.601 84.5781C112.601 84.5781 122.851 84.4281 128.201 89.5781L137.201 97.3681L136.581 100.128L134.441 108.688" stroke="white" stroke-miterlimit="10"/>
<path d="M263.43 31.4881C263.43 31.4881 164.68 29.3481 126.43 36.3781C126.43 36.3781 168.93 99.6681 172.29 111.588L180.86 115.588C180.86 115.588 298.26 118.648 344.58 89.7581C344.58 89.7581 349.17 84.5381 337.58 81.5281" stroke="white" stroke-miterlimit="10"/>
<path d="M481.28 154.668C481.28 154.668 465.45 188.788 408.12 208.968L307.23 211.028L276 205.298L268.67 205.528V211.028C268.67 211.028 289.3 240.838 293.67 243.128C293.67 243.128 325.31 252.068 384.67 251.618C384.67 251.618 412.67 262.848 413.56 263.308C414.45 263.768 421.36 263.308 421.36 263.308C421.36 263.308 473.7 228.228 487 197.498C487 197.498 484.48 180.988 482.87 175.948L484.44 170.278" stroke="white" stroke-miterlimit="10"/>
<path d="M408.12 208.968C408.12 210.568 410.18 216.968 410.18 216.968L384.73 251.598" stroke="white" stroke-miterlimit="10"/>
<path d="M488.15 217.988C488.15 217.988 468 248.098 451.76 258.038L451.08 259.788L448.59 279.018L449.17 280.738C449.17 280.738 482.76 245.168 485.51 236.248L488.51 219.338L488.15 217.988Z" stroke="white" stroke-miterlimit="10"/>
<path d="M449.381 272.888C449.381 272.888 399.002 313.068 396.122 317.808C396.122 317.808 313.202 342.718 278.462 317.808" stroke="white" stroke-miterlimit="10"/>
<path d="M155 113.578C155 113.578 125.39 35.8478 101.32 32.1678C101.32 32.1678 68.32 22.5378 47.66 33.7678C47.66 33.7678 34.13 65.2378 31.84 70.9478L85.12 93.0478" stroke="white" stroke-miterlimit="10"/>
<path d="M180.891 115.558L187.311 136.348C187.311 136.348 303.491 189.818 319.381 210.778" stroke="white" stroke-miterlimit="10"/>
<path d="M189.099 305.003C174.396 276.06 173.471 247.013 187.031 240.124C200.592 233.236 223.504 251.114 238.206 280.057C252.909 309 253.835 338.048 240.274 344.936C226.714 351.825 203.802 333.946 189.099 305.003Z" stroke="white" stroke-miterlimit="10"/>
<path d="M22.0013 120.828C22.0013 120.828 12.4613 126.108 18.0013 145.828C18.0013 145.828 25.0013 176.098 40.7813 195.058L45.2913 196.168L64.5523 191.118L67.6113 185.578" stroke="white" stroke-miterlimit="10"/>
<path d="M282 336.918L258.23 355.408C258.23 355.408 247.23 361.988 235.91 357.548C235.91 357.548 174.76 333.858 172.01 243.358C172.01 243.358 174.3 228.068 185.46 222.718L210.05 212.338" stroke="white" stroke-miterlimit="10"/>
<path d="M166.279 241.168L41.9093 157.508" stroke="white" stroke-miterlimit="10"/>
<path d="M79.2305 28.5283C79.2305 28.5283 71.8605 62.3683 71.5705 87.4383L67.5705 91.5583L63.7905 109.168C63.7905 109.168 70.3605 154.118 74.3405 165.888L74.7404 179.618" stroke="white" stroke-miterlimit="10"/>
</svg>

<svg width="500" height="375" fill="none" xmlns="http://www.w3.org/2000/svg"><path d="M11.31 121.968s2.19-13.21 11.93.55a197.437 197.437 0 0 1 23.12 47l125.35 94.48s-17.729-50 6.731-57.33c0 0 48.31-18.8 95.54 94.93 0 0 6.88 22 8 35.32l3.92 5.25s52.31 10.78 130.709-9.86c0 0 35.31-23.85 67.41-84.84 0 0 15.29-45 2.29-75.06l-5.5-6.34s3.44-10.07-2.52-17.9c-5.96-7.83-34.78-43.34-141.479-66.88 0 0-48.92-42.19-75.21-53.19 0 0-53.66-20-183.44-8.57 0 0-31.41 3-40.82 10.78 0 0-19.261 38.75-19.261 39.44 0 .69-9.08 7.14-9.08 7.14s.25 15.94 1.29 20.06l.3 20.91s2.75 17.73 6.42 22.77" stroke="#fff" stroke-miterlimit="10"/><path d="M85.52 105.308s27.341 4.9 52.001 3.83c0 0 17.28 4 17.58 4.44.3.44.61 5.35 0 8.71 0 0-15.13-6.73-29.2-6.88 0 0-33.32-2-35.92-3.51a36.799 36.799 0 0 1-7.8-16l1.53-2.14s21.56-9.79 28.89-9.18c0 0 10.25-.15 15.6 5l9 7.79-.62 2.76-2.14 8.56M263.43 31.488s-98.75-2.14-137 4.89c0 0 42.5 63.29 45.86 75.21l8.57 4s117.4 3.06 163.72-25.83c0 0 4.59-5.22-7-8.23M481.28 154.668s-15.83 34.12-73.16 54.3l-100.89 2.06-31.23-5.73-7.33.23v5.5s20.63 29.81 25 32.1c0 0 31.64 8.94 91 8.49 0 0 28 11.23 28.89 11.69.89.46 7.8 0 7.8 0s52.34-35.08 65.64-65.81c0 0-2.52-16.51-4.13-21.55l1.57-5.67" stroke="#fff" stroke-miterlimit="10"/><path d="M408.12 208.968c0 1.6 2.06 8 2.06 8l-25.45 34.63M488.15 217.988s-20.15 30.11-36.39 40.05l-.68 1.75-2.49 19.23.58 1.72s33.59-35.57 36.34-44.49l3-16.91-.36-1.35ZM449.381 272.888s-50.379 40.18-53.259 44.92c0 0-82.92 24.91-117.66 0M155 113.578s-29.61-77.73-53.68-81.41c0 0-33-9.63-53.66 1.6 0 0-13.53 31.47-15.82 37.18l53.28 22.1M180.891 115.558l6.42 20.79s116.18 53.47 132.07 74.43M189.099 305.003c-14.703-28.943-15.628-57.99-2.068-64.879 13.561-6.888 36.473 10.99 51.175 39.933 14.703 28.943 15.629 57.991 2.068 64.879-13.56 6.889-36.472-10.99-51.175-39.933ZM22.001 120.828s-9.54 5.28-4 25c0 0 7 30.27 22.78 49.23l4.51 1.11 19.261-5.05 3.06-5.54" stroke="#fff" stroke-miterlimit="10"/><path d="m282 336.918-23.77 18.49s-11 6.58-22.32 2.14c0 0-61.15-23.69-63.9-114.19 0 0 2.29-15.29 13.45-20.64l24.59-10.38M166.279 241.168l-124.37-83.66M79.23 28.528s-7.37 33.84-7.66 58.91l-4 4.12-3.78 17.61s6.57 44.95 10.55 56.72l.4 13.73" stroke="#fff" stroke-miterlimit="10"/></svg>
